src/components/00-materials/images-raw/IT VPN.svg

<svg width="96" height="96" viewBox="0 0 96 96" fill="none" xmlns="http://www.w3.org/2000/svg">
<path d="M78.07 11H17.93C15.638 11 13.78 12.858 13.78 15.15V56.55C13.78 58.842 15.638 60.7 17.93 60.7H78.07C80.362 60.7 82.22 58.842 82.22 56.55V15.15C82.22 12.858 80.362 11 78.07 11Z" stroke="#00008F" stroke-width="2" stroke-linecap="round" stroke-linejoin="round"/>
<path d="M64.56 80.58H90.5H64.56ZM5.5 80.58H31.44H5.5ZM44.69 60.7H51.31V75.0599H44.69V60.7Z" stroke="#00008F" stroke-width="2" stroke-linecap="round" stroke-linejoin="round"/>
<path d="M62.01 75.0601H33.99C32.5817 75.0601 31.44 76.2017 31.44 77.6101V82.4501C31.44 83.8584 32.5817 85.0001 33.99 85.0001H62.01C63.4183 85.0001 64.56 83.8584 64.56 82.4501V77.6101C64.56 76.2017 63.4183 75.0601 62.01 75.0601Z" stroke="#00008F" stroke-width="2" stroke-linecap="round" stroke-linejoin="round"/>
<path d="M13.78 49.6601H82.22H13.78ZM29.23 27.5701H66.76V35.3001H29.23V27.5701Z" stroke="#00008F" stroke-width="2" stroke-linecap="round" stroke-linejoin="round"/>
<path d="M29.23 27.5701H44.94V35.3001H29.23V27.5701Z" stroke="#00008F" stroke-width="2" stroke-miterlimit="10"/>
</svg>

<svg width="96" height="96" viewBox="0 0 96 96" fill="none" xmlns="http://www.w3.org/2000/svg"><path d="M78.07 11H17.93a4.15 4.15 0 00-4.15 4.15v41.4a4.15 4.15 0 004.15 4.15h60.14a4.15 4.15 0 004.15-4.15v-41.4A4.15 4.15 0 0078.07 11zM64.56 80.58H90.5 64.56zm-59.06 0h25.94H5.5zM44.69 60.7h6.62v14.36h-6.62V60.7zM62.01 75.06H33.99a2.55 2.55 0 00-2.55 2.55v4.84A2.55 2.55 0 0033.99 85h28.02a2.55 2.55 0 002.55-2.55v-4.84a2.55 2.55 0 00-2.55-2.55z" stroke="#00008F" stroke-width="2" stroke-linecap="round" stroke-linejoin="round"/><path d="M13.78 49.66h68.44-68.44zm15.45-22.09h37.53v7.73H29.23v-7.73z" stroke="#00008F" stroke-width="2" stroke-linecap="round" stroke-linejoin="round"/><path d="M29.23 27.57h15.71v7.73H29.23v-7.73z" stroke="#00008F" stroke-width="2" stroke-miterlimit="10"/></svg>
